icons/home-16.svg

<svg width="16" height="16" viewBox="0 0 16 16" xmlns="http://www.w3.org/2000/svg">
  <path fill-rule="evenodd" clip-rule="evenodd" d="M8.156 1.835C8.1117 1.79962 8.05669 1.78035 8 1.78035C7.94331 1.78035 7.8883 1.79962 7.844 1.835L2.594 6.035C2.56459 6.05848 2.54086 6.08831 2.52458 6.12224C2.50831 6.15618 2.4999 6.19336 2.5 6.231V13.25C2.5 13.388 2.612 13.5 2.75 13.5H5.5V8.25C5.5 8.05108 5.57902 7.86032 5.71967 7.71967C5.86032 7.57901 6.05109 7.5 6.25 7.5H9.75C9.94891 7.5 10.1397 7.57901 10.2803 7.71967C10.421 7.86032 10.5 8.05108 10.5 8.25V13.5H13.25C13.3163 13.5 13.3799 13.4737 13.4268 13.4268C13.4737 13.3799 13.5 13.3163 13.5 13.25V6.23C13.4999 6.19253 13.4915 6.15555 13.4752 6.12179C13.4589 6.08804 13.4353 6.05838 13.406 6.035L8.156 1.835ZM6.906 0.663995C7.21634 0.415615 7.602 0.280289 7.9995 0.280289C8.397 0.280289 8.78266 0.415615 9.093 0.663995L14.343 4.864C14.758 5.19599 15 5.699 15 6.231V13.25C15 13.7141 14.8156 14.1592 14.4874 14.4874C14.1592 14.8156 13.7141 15 13.25 15H9.75C9.55109 15 9.36032 14.921 9.21967 14.7803C9.07902 14.6397 9 14.4489 9 14.25V9H7V14.25C7 14.4489 6.92098 14.6397 6.78033 14.7803C6.63968 14.921 6.44891 15 6.25 15H2.75C2.28587 15 1.84075 14.8156 1.51256 14.4874C1.18437 14.1592 1 13.7141 1 13.25V6.23C1 5.699 1.242 5.19599 1.657 4.864L6.907 0.663995H6.906Z"/>
</svg>

<svg xmlns="http://www.w3.org/2000/svg" width="16" height="16" viewBox="0 0 16 16"><path fill-rule="evenodd" d="M8.156 1.835a.25.25 0 00-.312 0l-5.25 4.2a.25.25 0 00-.094.196v7.019c0 .138.112.25.25.25H5.5V8.25a.75.75 0 01.75-.75h3.5a.75.75 0 01.75.75v5.25h2.75a.25.25 0 00.25-.25V6.23a.25.25 0 00-.094-.195l-5.25-4.2zM6.906.664a1.75 1.75 0 012.187 0l5.25 4.2c.415.332.657.835.657 1.367v7.019A1.75 1.75 0 0113.25 15h-3.5a.75.75 0 01-.75-.75V9H7v5.25a.75.75 0 01-.75.75h-3.5A1.75 1.75 0 011 13.25V6.23c0-.531.242-1.034.657-1.366l5.25-4.2h-.001z"/></svg>
